X:322
T: Waldvgelein (63b), S. 194
N: T0211
O: Luxemburg
S: Singendes Volk, Esch-Alzette 1937 posth.]
N: Godbringen, fff Wattges Ktt, 1903
R: Liebeslieder]
M: 6/8
L: 1/8
K: G
D | G2GGFG | BAz3
D | cBAdcB | A2z3
d | dBBBAG | c2ee2
e | deddcA | Gz
BBzG | AzddcA | G2z3

@@@ Tune index: 8376
